!!!COM: Bach, Johann Sebastian
!!!OTL: Inventio No. 4
!! Two-part invention: Inventio 4; in d minor; BWV 775
!! Bach-Gesellschaft edition, pp.4-5
!! Performance duration: 0:44; performance tempo: 106.4 quarter-notes per min.
!! (Andras Schiff, piano, "Two-Part Inventions BWV 772a-786; Three-part
!! Inventions BWV 787-801" Decca 411 974-2)
**kern	**kern
*clefF4	*clefG2
*k[b-]	*k[b-]
*d:	*d:
*M3/8	*M3/8
*MM106.4	*MM106.4
=1	=1
4.r	16d
.	16e
.	16f
.	16g
.	16a
.	16b-
=2	=2
4.r	16c#
.	16b-
.	16a
.	16g
.	16f
.	16e
=3	=3
16D	8f
16E	.
16F	8a
16G	.
16A	8dd
16B-	.
=4	=4
16C#	8g
16B-	.
16A	8cc#
16G	.
16F	8ee
16E	.
=5	=5
8F	16dd
.	16ee
8A	16ff
.	16gg
8d	16aa
.	16bb-
=6	=6
8E	16cc#
.	16bb-
8G	16aa
.	16gg
8c#	16ff
.	16ee
=7	=7
8D	16ff
.	16dd
8d	16ee
.	16ff
8F	16gg
.	16aa
=8	=8
8G	16b-
.	16aa
8A	16gg
.	16ff
8B-	16ee
.	16dd
=9	=9
8C	16ee
.	16cc
8c	16dd
.	16ee
8E	16ff
.	16gg
=10	=10
8F	16a
.	16gg
8G	16ff
.	16ee
8A	16dd
.	16cc
=11	=11
16B-	16dd
16G	16ee
16A	16ff
16B-	16dd
16c	16ee
16d	16ff
=12	=12
16E	8g
16d	.
16c	8r
16B-	.
16A	8r
16G	.
=13	=13
16A	16cc
16F	16dd
16G	16ee
16A	16cc
16B-	16dd
16c	16ee
=14	=14
16D	8f
16c	.
16B-	8r
16A	.
16G	[8b-
16F	.
=15	=15
16E	8b-]
16C	.
16D	8a
16E	.
16F	8g
16G	.
=16	=16
16AA	16cc
16G	16b-
16F	16a
16E	16g
16D	16f
16C	16e
=17	=17
16D	16f
16BB-	16g
8C	8.g
8CC	.
.	16f
=18	=18
16FF	8f
16GG	.
16AA	8cc
16BB-	.
16C	8cc
16D	.
=19	=19
16EE	[4.ccM
16D	.
16C	.
16BB-	.
16AA	.
16GG	.
=20	=20
16AA	4.cc_
16BB-	.
16C	.
16D	.
16E	.
16F	.
=21	=21
16GG	4.cc_
16F	.
16E	.
16D	.
16C	.
16BB-	.
=22	=22
16AA	16cc]
16BB-	16b-
16C	16a
16AA	16g
16BB-	16f
16C	16e
=23	=23
8FF#	16cc
.	16d
8r	16e
.	16f#
8r	16g
.	16a
=24	=24
16GG	16b-
16AA	16a
16BB-	16g
16GG	16f
16AA	16e
16BB-	16d
=25	=25
8EE	16b-
.	16c
8r	16d
.	16e
8r	16f
.	16g
=26	=26
8FF	16a
.	16bn
8F	16cc
.	16dd
8D	16ee
.	16ff
=27	=27
8BBn	16g#
.	16ff
8GG#	16ee
.	16dd
8EE	16cc
.	16bn
=28	=28
16AA	16cc
16GG#	16bn
16AA	16dd
16BBn	16cc
16C	16b
16D	16a
=29	=29
[4.EM	16g#
.	16a
.	16g#
.	16f#
.	16e
.	16d
=30	=30
4.E_	16c
.	16d
.	16e
.	16f#
.	16g#
.	16a
=31	=31
4.E_	16d
.	16cc
.	16bn
.	16a
.	16g#
.	16f#
=32	=32
4.E_	16e
.	16f#
.	16g#
.	16a
.	16bn
.	16cc
=33	=33
4.E_	16f#
.	16ee
.	16dd
.	16cc
.	16bn
.	16a
=34	=34
8E]	16g#
.	16a
8e	16bn
.	16cc
8d	16dd
.	16ee
=35	=35
8c	16a
.	16ff
8Bn	16ee
.	16dd
8A	16cc
.	16bn
=36	=36
8d	16aa
.	16gg#
8e	16ff#
.	16ee
8f	[8aa
=37	=37
8d	16aa]
.	16dd
8e	8.bn
8E	.
.	16a
=38	=38
16A	8.a
16AA	.
16BB-	.
16C	16a
16D	16b-
16E-	16cc
=39	=39
16FF#	8d
16E-	.
16D	8f#
16C	.
16BB-	8a
16AA	.
=40	=40
8.GG	16b-
.	16g
.	16a
16GG	16b-
16AA	16cc
16BB-	16dd
=41	=41
8CC	16e
.	16dd
8GG	16cc
.	16b-
8C	16a
.	16g
=42	=42
16F	8a
16G	.
16A	16ff
16Bn	16ee
16c#	8ff
16d	.
=43	=43
16E	8g
16d	.
16c#	8ee
16Bn	.
16A	8r
16G	.
=44	=44
8F	16dd
.	16ee
8A	16ff
.	16gg
8d	16aa
.	16bb-
=45	=45
8E	16cc#
.	16bb-
8G	16aa
.	16gg
8c#	16ff
.	16ee
=46	=46
16D	8ff
16E	.
16F	8dd
16G	.
16A	[8g
16B-	.
=47	=47
16C#	16g]
16B-	16dd
16A	16cc#
16G	16ee
16F	16a
16E	16cc#
=48	=48
16F	16dd
16G	16bn
8A	8.cc#
8AA	.
.	16dd
=49	=49
8.BB-	16dd
.	16ccn
.	16b-
16C	16a
16BB-	16g
16AA	16f
=50	=50
16GG	16b-
16B-	16c#
16A	16d
16G	16e
16F	16f
16E	16g
=51	=51
16F	16a
16G	16dd
8A	8f
8AA	16e
.	16d
=52	=52
4.DD;	4.d;
==	==
*-	*-
!!!CDT: 1685/3//-1750/7/28
!!!OCY: Deutschland
